!!!COM: Mozart, Wolfgang Amadeus
!!!CDT: 1756/01/27/-1791/12/05/
!!!CNT: German
!!!OTL: Piano Sonata No. 12 in F major
!!!SCT1: K<sup>1</sup> 332
!!!SCT2: K<sup>6</sup> 300k
!!!OMV: Mvmt. 2
!!!OMD: Adagio
!!!ODT: ~1783///
**kern	**kern	**dynam
*staff2	*staff1	*staff1/2
*clefF4	*clefG2	*clefG2
*k[b-e-]	*k[b-e-]	*k[b-e-]
*B-:	*B-:	*B-:
*met(c)	*met(c)	*met(c)
*M4/4	*M4/4	*M4/4
*MM60	*MM60	*MM60
=1-	=1-	=1-
!LO:TX:b:i:t=legato	!	!
16B-LL	4b-	p
16f	.	.
16d	.	.
16fJJ	.	.
16B-LL	(8.ddSL	.
16f	.	.
16d	.	.
16fJJ	16ee-Jk)	.
16ALL	(8.eenL	.
16f	.	.
16c	.	.
16fJJ	16ffJk)	.
16ALL	8cc	.
16f	.	.
16c	8r	.
16fJJ	.	.
=2	=2	=2
16GLL	(8.ee-XSL	.
16e-	.	.
16B-	.	.
16e-JJ	16ffJk)	.
16E-LL	(8.ggSL	.
16B-	.	.
16G	.	.
16B-JJ	16aaJk)	.
16DLL	(8.aaL	.
16B-	.	.
16F	.	.
16B-JJ	16bb-Jk)	.
16DLL	8ff'	.
16B-	.	.
16F	8r	.
16B-JJ	.	.
=3	=3	=3
16E-LL	(8.ggL	.
16G	.	.
16E-	.	.
16BnJJ	32aa-LL	.
.	32ggJJJ	.
16E-LL	16ffLL	.
16c	16ee-	.
16E-	16dd	.
16e-JJ	16ccJJ)	.
16DLL	(16eenLK	.
16F	8ff	.
16D	.	.
16AJJ	32ggLL	.
.	32ffJJJ	.
16DLL	16ee-LL	.
16B-	16dd	.
16D	16cc	.
16dJJ	16b-JJ)	.
=4	=4	=4
16ALL	(16ffLK	.
16f	8ee-	.
16c	.	.
16fJJ	16ccJk)	.
16B-LL	(16ee-LK	.
16f	8dd	.
16d	.	.
16fJJ	16b-Jk)	.
16FLL	(8.ddL	.
16d	.	.
16B-	.	.
16dJJ	32ee-LL	.
.	32ddJJJ	.
8F 8A 8c	16ccLL)	.
.	(16ff	.
8r	16ee-	.
.	16ccJJ)	.
=5	=5	=5
16B-LL	(8.b-SL	.
16f	.	.
16d-	.	.
16fJJ	16ccJk)	.
16B-LL	(8.dd-SL	.
16f	.	.
16d-	.	.
16fJJ	16ee-Jk)	.
16A-LL	(8.eenL	.
16f	.	.
16c	.	.
16fJJ	16ffJk)	.
16A-LL	8cc	.
16f	.	.
16c	8r	.
16fJJ	.	.
=6	=6	=6
16G-LL	(8.ee-XSL	.
16e-	.	.
16B-	.	.
16e-JJ	16ffJk)	.
16E-LL	(8.gg-SL	.
16B-	.	.
16G-	.	.
16B-JJ	16aa-Jk)	.
16DnLL	(8.aanL	.
16B-	.	.
16F	.	.
16B-JJ	16bb-Jk)	.
16D-LL	8ff'	.
16B-	.	.
16F	8r	.
16B-JJ	.	.
=7	=7	=7
!!  The first beam in the top staff needs to have subgroups
!!  added to the beam.
.	32eenqq/	.
16CLL	[4ddd-	.
16B-	.	.
16Gn	.	.
16B-JJ	.	.
16CLL	16ddd-LL]	.
16B-	(32cccL	.
.	32bb-J)	.
16G	(32aa-L	.
.	32ggnJ)	.
16B-JJ	(32ffL	.
.	32eenJJJ)	.
16D-LL	(8ggL	.
16A-	.	.
16F	[8ffJ	.
16A-JJ	.	.
16BB-LL	16ffLK]	.
16G	8ee-	.
16D-	.	.
16GJJ	16dd-Jk)	.
=8	=8	=8
*^	*^	*
2ryy	16CLL	4ryy	(>8.ccSL	.
.	16A-	.	.	.
.	16F	.	.	.
.	16A-JJ	.	16dd-Jk)	.
.	16CLL	(8fL	8fL	.
.	16B-	.	.	.
.	16G	16a-L	8enJ	.
.	16B-JJ	16gJJ)	.	.
(16AnLL	8F	4f	2ryy	.
16c)	.	.	.	.
16c	8r	.	.	.
16cJJ	.	.	.	.
(16ALL	(8FL	4r	.	.
16c	.	.	.	.
16B-	8GJ)	.	.	.
16cJJ)	.	.	.	.
*	*	*v	*v	*
=9	=9	=9	=9
(16GLL	8En	8b-	.
16c)	.	.	.
16c	8r	8r	.
16cJJ	.	.	.
(16ELL	(8CL	8g'L	.
16c	.	.	.
16B-	8GJ)	8en'J	.
16cJJ)	.	.	.
(16ALL	8F	(16.ccLL>	.
16c)	.	.	.
.	.	32aJk	.
16c	8r	8cc'J)	.
16cJJ	.	.	.
(16ALL	(8FL	4r	.
16c	.	.	.
16B-	8GJ)	.	.
16cJJ)	.	.	.
=10	=10	=10	=10
(16GLL	8En	8b-	.
16c)	.	.	.
16c	8r	8r	.
16cJJ	.	.	.
(16ELL	(8CL	8g'L	.
16c	.	.	.
16B-	8GJ)	8en'J	.
16cJJ)	.	.	.
8A	8F	(16.ccLL>	.
.	.	32aJk	.
8r	8ryy	8cc'J)	.
4r	4ryy	16ff (16aaLL	sfp
.	.	16een 16gg	.
.	.	16dd 16ff	.
.	.	16cc# 16eeJJ)	.
=11	=11	=11	=11
2.ryy	2r	16dd (16ffLL	sfp
.	.	16ccn 16een	.
.	.	16b- 16dd	.
.	.	16a 16cc#JJ)	.
.	.	16b- (16ddLL<	sfp
.	.	16a 16ccn	.
.	.	16g 16b-	.
.	.	16f# 16aJJ)	.
.	(4D 4F# 4A 4c	[4d 4f# (>4a	sf
(8B-L	4G)	16d] 16g 16b-)	p
.	.	(16b-TLL	.
.	.	16aqLL>	.
.	.	16b-qJJ	.
8enJ)	.	16cc	.
.	.	16ddJJ)	.
=12	=12	=12	=12
*	*	*^	*
4ryy	(8A 8fnL	(<24ccLL	4ryy	.
.	.	24b-	.	.
.	.	24aJJ	.	.
.	8B- 8dJ)	24gLL	.	.
.	.	24b-	.	.
.	.	24ddJJ)	.	.
(8AL	4C	(8fnL	(8fnL	.
8B-J)	.	8gJ)	8enJ)	.
(16B-LL	8F	(16.gLL	(8eL	.
16c)	.	.	.	.
.	.	32g#Jk	.	.
16c	8r	8a'J)	8fJ)	.
16cJJ	.	.	.	.
(16ALL	(8FL	4r	4ryy	.
16c	.	.	.	.
16B-	8GJ)	.	.	.
16cJJ)	.	.	.	.
*	*	*v	*v	*
=13	=13	=13	=13
(16GLL	8En	8b-	.
16c)	.	.	.
16c	8r	8r	.
16cJJ	.	.	.
(16ELL	(8CL	8gn'L	.
16c	.	.	.
16B-	8GJ)	8en'J	.
16cJJ)	.	.	.
(16ALL	8F	(16.ccLL>	.
16c)	.	.	.
.	.	32aJk	.
16c	8r	8cc'J)	.
16cJJ	.	.	.
(16ALL	(8FL	4r	.
16c	.	.	.
16B-	8GJ)	.	.
16cJJ)	.	.	.
=14	=14	=14	=14
(16GLL	8En	8b-	.
16c)	.	.	.
16c	8r	8r	.
16cJJ	.	.	.
(16ELL	(8CL	8g'L	.
16c	.	.	.
16B-	8GJ)	8en'J	.
16cJJ)	.	.	.
8A	8F	(16.ccLL	.
.	.	32ffJk	.
8r	8ryy	8cc'J)	.
4r	4ryy	(16ff 16aaLL	sfp
.	.	16een 16gg	.
.	.	16dd 16ff	.
.	.	16cc# 16eeJJ)	.
=15	=15	=15	=15
2.ryy	2r	16dd (16ffLL	sfp
.	.	16ccn 16een	.
.	.	16b- 16dd	.
.	.	16a 16cc#JJ)	.
.	.	(16b- 16ddLL	sfp
.	.	16a 16ccn	.
.	.	16g 16b-	.
.	.	16f#) 16aJJ	.
.	(4D 4F# 4A (4c	[4d 4f# (>4a	sfp
(8B-L)	4G)	16d] 16g 16b-)	p
.	.	(16b-TLL)	.
.	.	16aqLL>	.
.	.	16b-qJJ	.
8enJ)	.	16cc	.
.	.	16ddJJ)	.
=16	=16	=16	=16
4ryy	(>8A 8fnL	(24ccLL	.
.	.	24ffn	.
.	.	24aJJ	.
.	8B- 8dJ)	24gLL	.
.	.	24b-	.
.	.	24ddJJ)	.
(8AL	4C	(8fL	.
8GJ)	.	8enJ)	.
.	.	(>32aqq/	.
2ryy	16r	([8aaL)	.
.	(>16FLL	.	.
.	16A	32.aaLL]	.
.	.	64ffJJJk)	.
.	16dJJ)	(32ffTLLL	.
.	.	64eenL	.
.	.	64ffJJJJ)	.
.	.	(>32b-qq/	.
.	16r	([8bb-L)	.
.	(>16GLL	.	.
.	16B-	32.bb-LL]	.
.	.	64ggJJJk)	.
.	16enJJ)	(32ggTLLL	.
.	.	64ff#L	.
.	.	64ggJJJJ)	.
=17	=17	=17	=17
4ryy	16r	(16.cccLL	.
.	(>16ALL	.	.
.	.	32aaJk)	.
.	16c	[8ffnJ	.
.	[16fJJ)	.	.
*	*^	*	*
8r	4A	4f/]	(16ffLL]	.
.	.	.	16ee-X	.
8e-X\	.	.	16dd	.
.	.	.	16cc#JJ	.
*	*v	*v	*	*
2ryy	8B- 8d 8f	16ddLL)	.
.	.	32een'L	.
.	.	32ff#'JJJ	.
.	8r	32gg'LLL	.
.	.	32aa'	.
.	.	32bb-	.
.	.	(32ccc#JJJ	.
.	8B- 8d 8g	32dddLLL)	.
.	.	(32cccn	.
.	.	32bb-)	.
.	.	32aa'JJJ	.
.	8r	32gg'LLL	.
.	.	32ffn'	.
.	.	32een'	.
.	.	32dd'JJJ	.
*v	*v	*	*
=18	=18	=18
(16CLL	8ccL	.
16A	.	.
16F	([8cccJ	.
16AJJ	.	.
16CLL	24cccLL]	.
.	24aa	.
16A	.	.
.	24ffJJ	.
16F	32ccLLL	.
.	32a	.
16AJJ	32ffJJJ)	.
.	64r	.
.	64f'	.
16CLL	2gT	.
16B-	.	.
16En	.	.
16B-JJ	.	.
16CLL	.	.
16B-	.	.
16E	.	.
16B-JJ)	.	.
.	(32fqLL>	.
.	32gqJJ)	.
=19	=19	=19
*^	*	*
(16FLL	1F	8f	.
16c	.	.	.
16f	.	32r	.
.	.	32ffLLK	.
16e-XJJ	.	(16ffTJJ	.
.	.	32eenqLLL>	.
.	.	32ffqJJJ	.
8dL	.	16cccLL	.
.	.	16bb-	.
8B-J	.	16aa	.
.	.	16ggJJ)	.
16ALL	.	(16ggLL	.
16c	.	16ffJJ)	.
16f	.	32r	.
.	.	32ffLLK	.
16e-JJ	.	(16ffJJ	.
.	.	32eeqLLL>	.
.	.	32ffqJJJ	.
8dL	.	16cccLL	.
.	.	16bb-	.
8B-J)	.	16aa	.
.	.	16ggJJ)	.
=20	=20	=20	=20
16F (16ALL	[2F	(16ggLL	.
16G 16B-	.	16ffJ)	.
16A 16c	.	(8ff'	.
16B- 16dJJ	.	.	.
16c 16e-XLL	.	8ff'	.
16Bn 16d	.	.	.
16c 16e-	.	8ff'J)	.
16B 16dJJ	.	.	.
!	!	!LO:TX:a:i:t=ten.	!
4c 4e-)	4F]	(4ff	.
4r	4ryy	32eenLLL	.
.	.	32ff	.
.	.	32gg	.
.	.	32ffJJJ)	.
.	.	(32ffLLL	.
.	.	32ee-	.
.	.	32dd	.
.	.	32ccJJJ)	.
*v	*v	*	*
=21	=21	=21
!LO:TX:b:i:t=legato	!	!
16B-LL	4b-	p
16f	.	.
16d	.	.
16fJJ	.	.
16B-LL	(8.ddSL	.
16f	.	.
16d	.	.
16fJJ	16ee-Jk)	.
16ALL	(8.eenL	.
16f	.	.
16c	.	.
16fJJ	16ffJk)	.
16ALL	8cc	.
16f	.	.
16c	8r	.
16fJJ	.	.
=22	=22	=22
16GLL	(8.ee-XSL	.
16e-	.	.
16B-	.	.
16e-JJ	16ffJk)	.
16E-LL	(8.ggSL	.
16B-	.	.
16G	.	.
16B-JJ	16aaJk)	.
16DLL	(8.aaL	.
16B-	.	.
16F	.	.
16B-JJ	16bb-Jk)	.
16DLL	8ff'	.
16B-	.	.
16F	8r	.
16B-JJ	.	.
=23	=23	=23
16E-LL	(8.ggL	.
16G	.	.
16E-	.	.
16BnJJ	32aa-LL	.
.	32ggJJJ	.
16E-LL	16ffLL	.
16c	16ee-	.
16E-	16dd	.
16e-JJ	16ccJJ)	.
16DLL	(16eenLK	.
16F	8ff	.
16D	.	.
16AJJ	32ggLL	.
.	32ffJJJ	.
16DLL	16ee-LL	.
16B-	16dd	.
16D	16cc	.
16dJJ	16b-JJ)	.
=24	=24	=24
(16ALL	32ff'LLL	.
.	32een'JJ	.
16f	(8ee-	sfp
16c	.	.
16fJJ)	16ccJk)	.
(16B-LL	32ee-LLL	.
.	32cc#JJ	.
16f	(8dd	sfp
16d	.	.
16fJJ)	16b-Jk)	.
(16FLL	(8.ddL	.
16d	.	.
16B-	.	.
16dJJ)	32ee-LL	.
.	32ddJJJ)	.
8F 8A 8c	24ccn'LL	<
.	24ff'	(
.	24een'JJ	[
8r	(32ee-LLL	>
.	32dd	)
.	32ee-	)
.	32ccJJJ)	]
=25	=25	=25
(16B-LL	(8.b-SL	p
16f	.	.
16d-	.	.
16fJJ)	16ccJk)	.
(16B-LL	(8.dd-SL	.
16f	.	.
16d-	.	.
16fJJ)	16ee-Jk)	.
(16A-LL	(8.eenL	.
16f	.	.
16c	.	.
16fJJ)	16ffJk)	.
(16A-LL	8cc	.
16f	.	.
16c	8r	.
16fJJ)	.	.
=26	=26	=26
(16G-LL	(>[8e-	.
16B-	.	.
16G-	56e-LLLL]	.
.	56f	.
.	56e-	.
.	56d	.
16B-JJ)	.	.
.	56e-	.
!	!LO:TX:b:i:t=crescendo	!
.	56en	.
.	56fJJJJ	.
(16E-LL	64g-LLLL	.
.	64gn	.
.	64a-	.
.	64an	.
16B-	64b-	.
.	64cc-	.
.	64ccn	.
.	64dd-JJJJ	.
16G-	64ddnLLLL	.
.	64ee-	.
.	64een	.
.	64ff	.
16B-JJ)	64gg-	.
.	64ggn	.
.	64aa-	.
.	64aanJJJJ)	.
(16DnLL	(8.aaSL	.
16B-	.	.
16F	.	.
16B-JJ)	16bb-Jk)	.
(16D-LL	8ff'	.
16B-	.	.
16F	8r	.
16B-JJ)	.	.
=27	=27	=27
.	(>32eenqq/	.
(16CLL	[4ddd-)	.
16B-	.	.
16Gn	.	.
16B-JJ)	.	.
(16CLL	16ddd-LL]	p
16B-	(32cccL	.
.	32bb-)	.
16G	(32aa-	.
.	32gg)	.
16B-JJ)	(32ff	.
.	32eenJJJ)	.
(16D-LL	(8ggL	.
16A-	.	.
16F	[8ffJ)	.
16A-JJ)	.	.
(16BB-LL	(16ffLL]	.
16G	16eenJJ	.
16D-	24ee-LL	.
.	24dd	.
16GJJ)	.	.
.	24dd-JJ)	.
=28	=28	=28
*^	*^	*
2ryy	(>16CLL	4ryy	(>8.ccSL	.
.	16A-	.	.	.
.	16F	.	.	.
.	16A-JJ)	.	16dd-Jk)	.
.	(>16CLL	(8fL	8fL	.
.	16B-	.	.	.
.	16G	16a-L	8enJ	.
.	16B-JJ)	16gJJ)	.	.
(16AnLL	8F	4f	2ryy	p
16f	.	.	.	.
16f)	8r	.	.	.
16fJJ	.	.	.	.
(16dnLL	(8B-L	4r	.	.
16f	.	.	.	.
16e-X	8cJ)	.	.	.
16fJJ)	.	.	.	.
*	*	*v	*v	*
=29	=29	=29	=29
(16cLL	8A	8ee-X	.
16f)	.	.	.
16f	8r	8r	.
16fJJ	.	.	.
(16ALL	(8FL	8cc'L>	.
16f	.	.	.
16e-	8cJ)	8an'J	.
16fJJ)	.	.	.
(16dLL	8B-	(16.ffLL	.
16f)	.	.	.
.	.	32ddJk	.
16f	8r	8ff'J)	.
16fJJ	.	.	.
(16dLL	(8B-L	4r	.
16f	.	.	.
16e-	8cJ)	.	.
16fJJ)	.	.	.
=30	=30	=30	=30
(16cLL	8A	(16ffLL	.
16f)	.	16ee-JJ)	.
16f'	8r	8r	.
16f'JJ	.	.	.
(16ALL	(8FL	(16ddLL	.
16f	.	32ccJJk)	.
.	.	32r	.
16e-	8cJ)	(16b-LL	.
16fJJ)	.	32aJJk)	.
.	.	32r	.
8d	8B-	(16.ffLL	.
.	.	32ddJk	.
8r	8ryy	8ff'J)	.
*clefG2	*clefG2	*	*
(<16b- 16ddLL	4ryy	(16bb- 16dddLL	sfp
16a 16cc	.	16aa 16ccc	.
16g 16b-	.	16gg 16bb-	.
16f#) 16aJJ	.	16ff# 16aaJJ)	.
*clefF4	*	*	*
=31	=31	=31	=31
2r	2ryy	16gg (16bb-LL	sfp
.	.	16ffn 16aa	.
.	.	16ee- 16gg	.
.	.	16dd 16ff#JJ)	.
.	.	(16ee- 16ggLL	sfp
.	.	16dd 16ffn	.
.	.	16cc 16ee-	.
.	.	16bn 16ddJJ	.
*clefG2	*	*	*
(4G 4Bn 4d 4f	4ryy	[4g 4b (4dd)	sfp
(8e-L)	4c	16g] 16cc 16ee-)	.
.	.	(16ee-TLL	.
.	.	16ddqLL>	.
.	.	16ee-qJJ	.
8aJ)	.	16ff	.
.	.	16ggJJ)	.
=32	=32	=32	=32
*	*	*^	*
(<8d 8b-XL	4ryy	2ryy	(>24ffLL	.
.	.	.	24ee-	.
.	.	.	24ddJJ	.
8e-) 8gJ	.	.	24ccLL	.
.	.	.	24ee-	.
.	.	.	24ggJJ)	.
*clefF4	*clefF4	*	*	*
(8dL	4F	.	(>8b-XL	.
8e-J)	.	.	8a 8ccJ)	.
(16e-LL	8B-	(16.ccLL	(8aL	.
16f)	.	.	.	.
.	.	32cc#Jk	.	.
16f'	8r	8dd'J)	8b-J)	.
16f'JJ	.	.	.	.
(16dLL	8B-L	4r	4ryy	.
16f)	.	.	.	.
(16e-	8cJ	.	.	.
16fJJ)	.	.	.	.
*	*	*v	*v	*
=33	=33	=33	=33
(16cLL	8A	8ee-	.
16f)	.	.	.
16f	8r	8r	.
16fJJ	.	.	.
(16ALL	(8FL	8cc'L	.
16f)	.	.	.
(16e-	8cJ)	8a'J	.
16fJJ)	.	.	.
(16dLL	8B-	(16.ffLL	.
16f)	.	.	.
.	.	32ddJk	.
16f	8r	8ff'J)	.
16fJJ	.	.	.
(16dLL	(8B-L	4r	.
16f)	.	.	.
(16e-	8cJ)	.	.
16fJJ)	.	.	.
=34	=34	=34	=34
(16cLL	8A	8ee-	.
16f)	.	.	.
16f	8r	8r	.
16fJJ	.	.	.
(16ALL	(8FL	8cc'L	.
16f)	.	.	.
(16e-	8cJ)	8a'J	.
16fJJ)	.	.	.
4ryy	8B- 8d	(16.ffLL	.
.	.	32bb-Jk	.
.	8r	8ff'J)	.
*clefG2	*	*	*
4ryy	(16b- 16ddLL>	16bb- (16dddLL	sfp
.	16a 16cc	16aa 16ccc	.
.	16g 16b-	16gg 16bb-	.
.	16f#) 16aJJ	16ff# 16aaJJ)	.
=35	=35	=35	=35
(<16g 16b-LL	2.ryy	16gg (16bb-LL	sfp
16fn 16a	.	16ffn 16aa	.
16e- 16g	.	16ee- 16gg	.
16d 16f#JJ)	.	16dd 16ff#JJ)	.
(<16e- 16gLL	.	16ee- (16ggLL	sfp
16d 16fn	.	16dd 16ffn	.
16c 16e-	.	16cc 16ee-	.
16Bn) 16dJJ	.	16bn 16ddJJ)	.
(4G 4B 4d (4f	.	[4g 4b (4dd	sfp
(8e-L)	4c	16g] 16cc 16ee-LL)	.
.	.	(16ee-T	.
.	.	16ddqLL>	.
.	.	16ee-qJJ	.
8aJ)	.	16ff	.
.	.	16ggJJ)	.
=36	=36	=36	=36
(8d 8b-L	4ryy	(24ffLL	.
.	.	24bb-	.
.	.	24ddJJ	.
8e-) 8gJ	.	24ggLL	.
.	.	24ee-	.
.	.	24ccJJ)	.
*clefF4	*	*	*
(8dL	4F	(8b-L	.
8cJ)	.	8aJ)	.
.	.	(>32dqq/	.
2ryy	16r	([8ddL)	f
.	(>16BB-LL	.	.
.	16D	32.ddLL]	.
.	.	64b-JJJk)	.
.	16GJJ)	(32b-TLLL<	.
.	.	64aL	.
.	.	(64b-JJJJ)	.
.	.	(>32e-qq/	.
.	16r	([8ee-L)	.
.	(>16CLL	.	.
.	16E-	32.ee-LL]	.
.	.	64ccJJJk)	.
.	16AJJ)	(32ccTLLL	.
.	.	64bnL	.
.	.	64ccJJJJ)	.
=37	=37	=37	=37
4ryy	16r	(16.ffLL	.
.	(>16DLL	.	.
.	.	32b-Jk)	.
.	16F	[8bb-J	.
.	[>16B-JJ)	.	.
4D\	8B-L>]	16bb-LL]	.
.	.	(16aa-	.
.	8A- 8B-J	16gg	.
.	.	(16ff#JJ	.
8G 8B-	8E-	32ff#LLL	.
.	.	32gg)	.
.	.	32bb-	.
.	.	32ggJJJ	.
8r	8ryy	32ddLLL	.
.	.	32ee-	.
.	.	32gg	.
.	.	32ee-JJJ	.
4ryy	8E- 8G 8c	32bnLLL	.
.	.	32cc	.
.	.	32ee-	.
.	.	32ddJJJ	.
.	8r	32ffnLLL	.
.	.	32ee-	.
.	.	32dd	.
.	.	32ccJJJ)	.
*v	*v	*	*
=38	=38	=38
.	(>32fqq/	.
(16FLL	([4ff)	.
16d	.	.
16B-	.	.
16dJJ	.	.
16FLL	16ffLL]	.
16d	16gg'	.
16B-	16aa'	.
16dJJ	16bb-JJ)	.
16FLL	2cc	.
16e-	.	.
16A	.	.
16e-JJ	.	.
16FLL	.	.
16e-	.	.
16A	.	.
16e-JJ)	.	.
.	(16b-qLL>	.
.	16ccqJJ)	.
*clefG2	*	*
=39	=39	=39
*^	*	*
(16B-LL	1B-	8b-	p
16d	.	.	.
16f	.	32r	.
.	.	32b-'LLK	.
16a-JJ	.	(16b-TJJ	.
.	.	16aqLL>	.
.	.	16b-qJJ	.
8gL	.	16ffLL	.
.	.	16ee-	.
8e-J)	.	16dd	.
.	.	16ccJJ)	.
(16dLL	.	(16ccLL	.
16f	.	16b-JJ)	.
16a-	.	32r	.
.	.	32b-'LLK	.
16f#JJ	.	(16b-TJJ	.
.	.	16aqLL>	.
.	.	16b-qJJ	.
8gL	.	16ffLL	.
.	.	16ee-	.
8e-J)	.	16dd	.
.	.	16ccJJ)	.
=40	=40	=40	=40
16r	4B-	16b-	.
16d (16fnLL	.	16r	.
16e- 16g	.	(16.ee-LL	.
16c 16e-JJ)	.	.	.
.	.	32anJJk	.
(16dLL	4B-	16b-')	.
16d 16f	.	16r	.
16e- 16g	.	(16.ggLL	.
16c 16e-JJ	.	.	.
.	.	32aJJk)	.
*clefF4	*clefF4	*	*
2ryy	[4BB- [>4B-)	(4c 4e- [4f (4a	.
.	8BB-] 8D 8F 8B-]	8d) 8f] 8b-)	.
.	8r	8r	.
*v	*v	*	*
==	==	==
*-	*-	*-
!!!RDF**kern: > = above
!!!RDF**kern: < = below
!!!SMS: Alte Mozart-Ausgabe, Band 20, Breitkopf &amp; H&auml;rtel 1877-1883.
!!!ONB: Stich und Druck von Breitkopf &amp; H&auml;rtel in Leipzig
!!!ONB: Ausgegeben 1878
!!!ENC: Craig Stuart Sapp
!!!END: 2009/10/15/
!!!EEV: 2017/01/22/
!!!title: @{OTL}, K 332 (300k), @{OMV}
!!!hum2abc: --no-tempo -s 0.65 --spacing 2.0 -p "%gracespace  0 6.0 12.0"
